public/github-fill.svg

<svg width="24" height="24" viewBox="0 0 24 24" fill="none" xmlns="http://www.w3.org/2000/svg">
<g clip-path="url(#clip0_1910_570)">
<path fill-rule="evenodd" clip-rule="evenodd" d="M12 0C5.37 0 0 5.37 0 12C0 17.31 3.435 21.795 8.205 23.385C8.805 23.49 9.03 23.13 9.03 22.815C9.03 22.53 9.015 21.585 9.015 20.58C6 21.135 5.22 19.845 4.98 19.17C4.845 18.825 4.26 17.76 3.75 17.475C3.33 17.25 2.73 16.695 3.735 16.68C4.68 16.665 5.355 17.55 5.58 17.91C6.66 19.725 8.385 19.215 9.075 18.9C9.18 18.12 9.495 17.595 9.84 17.295C7.17 16.995 4.38 15.96 4.38 11.37C4.38 10.065 4.845 8.985 5.61 8.145C5.49 7.845 5.07 6.615 5.73 4.965C5.73 4.965 6.735 4.65 9.03 6.195C9.99 5.925 11.01 5.79 12.03 5.79C13.05 5.79 14.07 5.925 15.03 6.195C17.325 4.635 18.33 4.965 18.33 4.965C18.99 6.615 18.57 7.845 18.45 8.145C19.215 8.985 19.68 10.05 19.68 11.37C19.68 15.975 16.875 16.995 14.205 17.295C14.64 17.67 15.015 18.39 15.015 19.515C15.015 21.12 15 22.41 15 22.815C15 23.13 15.225 23.505 15.825 23.385C20.565 21.795 24 17.295 24 12C24 5.37 18.63 0 12 0Z" fill="#1B1F23"/>
</g>
<defs>
<clipPath id="clip0_1910_570">
<rect width="24" height="24" fill="white"/>
</clipPath>
</defs>
</svg>

<?xml version="1.0" encoding="utf-8"?>
<!-- Generator: Adobe Illustrator 23.0.5, SVG Export Plug-In . SVG Version: 6.00 Build 0)  -->
<svg version="1.1" id="Layer_1" xmlns="http://www.w3.org/2000/svg" xmlns:xlink="http://www.w3.org/1999/xlink" x="0px" y="0px"
	 viewBox="0 0 24 24" style="enable-background:new 0 0 24 24;" xml:space="preserve">
<style type="text/css">
	.st0{clip-path:url(#SVGID_2_);}
	.st1{fill-rule:evenodd;clip-rule:evenodd;fill:#E4E0DC;}
</style>
<g>
	<defs>
		<rect id="SVGID_1_" width="24" height="24"/>
	</defs>
	<clipPath id="SVGID_2_">
		<use xlink:href="#SVGID_1_"  style="overflow:visible;"/>
	</clipPath>
	<g class="st0">
		<path class="st1" d="M12,0C5.4,0,0,5.4,0,12c0,5.3,3.4,9.8,8.2,11.4C8.8,23.5,9,23.1,9,22.8c0-0.3,0-1.2,0-2.2
			c-3,0.6-3.8-0.7-4-1.4c-0.1-0.3-0.7-1.4-1.2-1.7c-0.4-0.2-1-0.8,0-0.8c0.9,0,1.6,0.9,1.8,1.2c1.1,1.8,2.8,1.3,3.5,1
			c0.1-0.8,0.4-1.3,0.8-1.6C7.2,17,4.4,16,4.4,11.4c0-1.3,0.5-2.4,1.2-3.2C5.5,7.8,5.1,6.6,5.7,5c0,0,1-0.3,3.3,1.2
			c1-0.3,2-0.4,3-0.4s2,0.1,3,0.4C17.3,4.6,18.3,5,18.3,5c0.7,1.6,0.2,2.9,0.1,3.2c0.8,0.8,1.2,1.9,1.2,3.2c0,4.6-2.8,5.6-5.5,5.9
			c0.4,0.4,0.8,1.1,0.8,2.2c0,1.6,0,2.9,0,3.3c0,0.3,0.2,0.7,0.8,0.6C20.6,21.8,24,17.3,24,12C24,5.4,18.6,0,12,0z"/>
	</g>
</g>
</svg>
